; generated by Slic3r 0.9.9 on 2013-06-07 at 22:23:19

; layer_height = 0.3
; perimeters = 2
; top_solid_layers = 4
; bottom_solid_layers = 3
; fill_density = 0.6
; perimeter_speed = 100
; infill_speed = 150
; travel_speed = 150
; nozzle_diameter = 0.5
; filament_diameter = 2.89
; extrusion_multiplier = 1
; perimeters extrusion width = 0.70mm
; infill extrusion width = 0.70mm
; solid infill extrusion width = 0.70mm
; top infill extrusion width = 0.70mm
; first layer extrusion width = 1.00mm

G21 ; set units to millimeters
M107
M190 S110 ; wait for bed temperature to be reached
M104 S230 ; set temperature
G28 ; home all axes
M109 S230 ; wait for temperature to be reached
G90 ; use absolute coordinates
G92 E0
M82 ; use absolute distances for extrusion
G1 F1800.000 E-1.70000
G92 E0
G1 Z0.500 F9000.000
G1 X24.766 Y34.095
G1 F1800.000 E1.70000
G1 X25.456 Y33.625 F1800.000 E1.75681
G1 X26.096 Y33.235 E1.80780
G1 X27.326 Y32.675 E1.89976
G1 X27.996 Y32.425 E1.94842
G1 X29.266 Y32.095 E2.03771
G1 X30.346 Y31.915 E2.11221
G1 X31.186 Y31.845 E2.16957
G1 X31.756 Y31.825 E2.20837
G1 X156.946 Y31.825 E10.72680
G1 X157.686 Y31.855 E10.77719
G1 X158.696 Y31.975 E10.84640
G1 X159.336 Y32.105 E10.89084
G1 X160.046 Y32.315 E10.94122
G1 X161.106 Y32.745 E11.01905
G1 X161.536 Y32.975 E11.05223
G1 X162.086 Y33.315 E11.09623
G1 X162.996 Y33.975 E11.17272
G1 X163.646 Y34.565 E11.23245
G1 X173.366 Y44.275 E12.16731
G1 X173.696 Y44.625 E12.20005
G1 X174.136 Y45.145 E12.24640
G1 X174.466 Y45.585 E12.28382
G1 X174.946 Y46.395 E12.34789
G1 X175.376 Y47.285 E12.41514
G1 X175.526 Y47.665 E12.44294
G1 X175.836 Y48.685 E12.51548
G1 X175.926 Y49.085 E12.54338
G1 X176.086 Y50.255 E12.62373
G1 X176.116 Y50.995 E12.67413
G1 X176.116 Y102.655 E16.18928
G1 X176.076 Y103.645 E16.25669
G1 X175.976 Y104.375 E16.30683
G1 X175.836 Y105.005 E16.35074
G1 X175.526 Y105.985 E16.42068
G1 X175.376 Y106.365 E16.44848
G1 X174.946 Y107.255 E16.51574
G1 X174.466 Y108.065 E16.57981
G1 X174.136 Y108.505 E16.61723
G1 X173.696 Y109.025 E16.66358
G1 X163.646 Y119.085 E17.63116
G1 X163.206 Y119.495 E17.67208
G1 X162.896 Y119.755 E17.69961
G1 X162.086 Y120.335 E17.76740
G1 X161.746 Y120.545 E17.79459
G1 X161.056 Y120.925 E17.84819
G1 X63.096 Y166.895 E25.21123
G1 X62.016 Y167.385 E25.29192
G1 X61.296 Y167.635 E25.34379
G1 X60.256 Y167.895 E25.41673
G1 X59.166 Y168.075 E25.49190
G1 X58.336 Y168.145 E25.54858
G1 X57.756 Y168.165 E25.58807
G1 X31.756 Y168.165 E27.35721
G1 X31.186 Y168.145 E27.39602
G1 X30.346 Y168.075 E27.45337
G1 X29.246 Y167.895 E27.52922
G1 X28.206 Y167.635 E27.60216
G1 X27.726 Y167.475 E27.63659
G1 X27.486 Y167.385 E27.65403
G1 X26.486 Y166.925 E27.72893
G1 X25.516 Y166.395 E27.80414
G1 X24.826 Y165.935 E27.86057
G1 X23.936 Y165.235 E27.93761
G1 X23.326 Y164.665 E27.99442
G1 X22.556 Y163.795 E28.07348
G1 X22.046 Y163.125 E28.13077
G1 X21.576 Y162.435 E28.18758
G1 X5.396 Y134.825 E30.36509
G1 X4.996 Y134.035 E30.42535
G1 X4.666 Y133.255 E30.48298
G1 X4.316 Y132.195 E30.55893
G1 X4.016 Y130.895 E30.64971
G1 X3.936 Y130.155 E30.70036
G1 X3.876 Y128.905 E30.78551
G1 X3.876 Y71.085 E34.71981
G1 X3.956 Y69.585 E34.82203
G1 X4.016 Y69.095 E34.85562
G1 X4.116 Y68.615 E34.88898
G1 X4.316 Y67.795 E34.94641
G1 X4.666 Y66.735 E35.02237
G1 X4.996 Y65.955 E35.08000
G1 X5.396 Y65.165 E35.14025
G1 X21.576 Y37.555 E37.31777
G1 X22.046 Y36.865 E37.37457
G1 X22.556 Y36.195 E37.43187
G1 X23.326 Y35.325 E37.51092
G1 X23.936 Y34.755 E37.56773
G1 X24.661 Y34.179 E37.63077
G1 F1800.000 E35.93077
G92 E0
G1 X26.282 Y36.548 F9000.000
G1 F1800.000 E1.70000
G1 X27.260 Y35.897 F1800.000 E1.77994
G1 X27.555 Y35.735 E1.80288
G1 X28.629 Y35.256 E1.88282
G1 X28.947 Y35.145 E1.90576
G1 X30.085 Y34.853 E1.98571
G1 X30.417 Y34.797 E2.00864
G1 X31.672 Y34.698 E2.09430
G1 X57.841 Y34.698 E3.87491
G1 X59.096 Y34.797 E3.96057
G1 X59.428 Y34.853 E3.98351
G1 X60.566 Y35.145 E4.06345
G1 X60.884 Y35.256 E4.08639
G1 X61.957 Y35.735 E4.16633
G1 X62.253 Y35.897 E4.18927
G1 X63.231 Y36.548 E4.26922
G1 X63.495 Y36.758 E4.29216
G1 X64.351 Y37.563 E4.37210
G1 X64.576 Y37.814 E4.39504
G1 X65.285 Y38.750 E4.47498
G1 X65.466 Y39.035 E4.49792
G1 X66.009 Y40.077 E4.57786
G1 X66.139 Y40.388 E4.60080
G1 X66.500 Y41.506 E4.68074
G1 X66.577 Y41.834 E4.70368
G1 X66.732 Y42.905 E4.77733
G1 X67.127 Y46.186 E5.00217
G1 X67.841 Y49.144 E5.20925
G1 X68.897 Y51.998 E5.41632
G1 X70.279 Y54.710 E5.62339
G1 X71.968 Y57.241 E5.83047
G1 X73.942 Y59.557 E6.03754
G1 X76.174 Y61.626 E6.24462
G1 X78.843 Y63.575 E6.46951
G1 X79.710 Y64.242 E6.54395
G1 X79.961 Y64.472 E6.56710
G1 X80.765 Y65.344 E6.64779
G1 X80.974 Y65.612 E6.67094
G1 X81.619 Y66.607 E6.75162
G1 X81.780 Y66.907 E6.77477
G1 X82.249 Y67.996 E6.85545
G1 X82.356 Y68.319 E6.87861
G1 X82.635 Y69.472 E6.95929
G1 X82.686 Y69.808 E6.98244
G1 X82.767 Y70.991 E7.06312
G1 X82.761 Y71.331 E7.08627
G1 X82.637 Y72.515 E7.16727
G1 X81.363 Y80.429 E7.71270
G1 X80.529 Y88.235 E8.24689
G1 X80.112 Y96.075 E8.78107
G1 X80.112 Y103.925 E9.31526
G1 X80.529 Y111.765 E9.84945
G1 X81.363 Y119.571 E10.38364
G1 X82.652 Y127.601 E10.93699
G1 X82.761 Y128.669 E11.01007
G1 X82.767 Y129.009 E11.03322
G1 X82.686 Y130.192 E11.11390
G1 X82.635 Y130.528 E11.13705
G1 X82.356 Y131.681 E11.21773
G1 X82.249 Y132.004 E11.24088
G1 X81.780 Y133.093 E11.32156
G1 X81.619 Y133.393 E11.34471
G1 X80.974 Y134.388 E11.42540
G1 X80.765 Y134.656 E11.44855
G1 X79.961 Y135.528 E11.52923
G1 X79.710 Y135.758 E11.55238
G1 X78.843 Y136.425 E11.62683
G1 X76.174 Y138.374 E11.85172
G1 X73.942 Y140.443 E12.05879
G1 X71.968 Y142.759 E12.26587
G1 X70.279 Y145.290 E12.47294
G1 X68.897 Y148.002 E12.68002
G1 X67.841 Y150.856 E12.88709
G1 X67.127 Y153.814 E13.09416
G1 X66.732 Y157.095 E13.31901
G1 X66.577 Y158.166 E13.39266
G1 X66.500 Y158.494 E13.41559
G1 X66.139 Y159.612 E13.49553
G1 X66.009 Y159.923 E13.51847
G1 X65.466 Y160.965 E13.59842
G1 X65.285 Y161.250 E13.62136
G1 X64.576 Y162.186 E13.70130
G1 X64.351 Y162.437 E13.72424
G1 X63.495 Y163.242 E13.80418
G1 X63.231 Y163.452 E13.82712
G1 X62.253 Y164.103 E13.90706
G1 X61.957 Y164.265 E13.93001
G1 X60.884 Y164.744 E14.00995
G1 X60.566 Y164.855 E14.03288
G1 X59.428 Y165.147 E14.11283
G1 X59.096 Y165.203 E14.13576
G1 X57.841 Y165.302 E14.22142
G1 X31.672 Y165.302 E16.00203
G1 X30.417 Y165.203 E16.08769
G1 X30.085 Y165.147 E16.11063
G1 X28.947 Y164.855 E16.19058
G1 X28.629 Y164.744 E16.21351
G1 X27.556 Y164.265 E16.29345
G1 X27.260 Y164.103 E16.31639
G1 X26.282 Y163.452 E16.39634
G1 X26.018 Y163.242 E16.41928
G1 X25.162 Y162.437 E16.49922
G1 X24.937 Y162.186 E16.52216
G1 X24.228 Y161.250 E16.60210
G1 X24.047 Y160.965 E16.62504
G1 X23.504 Y159.923 E16.70498
G1 X23.374 Y159.612 E16.72792
G1 X23.013 Y158.494 E16.80786
G1 X22.936 Y158.166 E16.83080
G1 X22.780 Y157.095 E16.90445
G1 X22.386 Y153.814 E17.12929
G1 X21.671 Y150.856 E17.33637
G1 X20.616 Y148.002 E17.54344
G1 X19.234 Y145.290 E17.75051
G1 X17.544 Y142.759 E17.95759
G1 X15.570 Y140.443 E18.16466
G1 X13.339 Y138.374 E18.37174
G1 X10.669 Y136.425 E18.59663
G1 X9.802 Y135.758 E18.67107
G1 X9.551 Y135.528 E18.69423
G1 X8.748 Y134.656 E18.77491
G1 X8.539 Y134.388 E18.79806
G1 X7.893 Y133.393 E18.87874
G1 X7.733 Y133.093 E18.90189
G1 X7.264 Y132.004 E18.98257
G1 X7.157 Y131.681 E19.00573
G1 X6.878 Y130.528 E19.08641
G1 X6.827 Y130.192 E19.10956
G1 X6.746 Y129.009 E19.19024
G1 X6.752 Y128.669 E19.21339
G1 X6.876 Y127.485 E19.29440
G1 X8.150 Y119.571 E19.83982
G1 X8.984 Y111.765 E20.37401
G1 X9.401 Y103.925 E20.90819
G1 X9.401 Y96.075 E21.44238
G1 X8.984 Y88.235 E21.97657
G1 X8.150 Y80.429 E22.51076
G1 X6.861 Y72.399 E23.06411
G1 X6.752 Y71.331 E23.13719
G1 X6.746 Y70.991 E23.16034
G1 X6.827 Y69.808 E23.24102
G1 X6.878 Y69.472 E23.26417
G1 X7.157 Y68.319 E23.34485
G1 X7.264 Y67.996 E23.36800
G1 X7.733 Y66.907 E23.44869
G1 X7.893 Y66.607 E23.47184
G1 X8.539 Y65.612 E23.55252
G1 X8.748 Y65.344 E23.57567
G1 X9.551 Y64.472 E23.65635
G1 X9.802 Y64.242 E23.67950
G1 X10.669 Y63.575 E23.75395
G1 X13.339 Y61.626 E23.97884
G1 X15.570 Y59.557 E24.18591
G1 X17.544 Y57.241 E24.39299
G1 X19.234 Y54.710 E24.60006
G1 X20.616 Y51.998 E24.80714
G1 X21.671 Y49.144 E25.01421
G1 X22.386 Y46.186 E25.22128
G1 X22.780 Y42.905 E25.44613
G1 X22.936 Y41.834 E25.51978
G1 X23.013 Y41.506 E25.54272
G1 X23.374 Y40.388 E25.62266
G1 X23.504 Y40.077 E25.64560
G1 X24.047 Y39.035 E25.72554
G1 X24.228 Y38.750 E25.74848
G1 X24.937 Y37.814 E25.82842
G1 X25.162 Y37.563 E25.85136
G1 X26.018 Y36.758 E25.93130
G1 X26.177 Y36.631 E25.94513
G1 F1800.000 E24.24513
G92 E0
G1 X22.190 Y36.421 F9000.000
G1 X89.063 Y49.895
G1 F1800.000 E1.70000
G1 X89.220 Y49.179 F1800.000 E1.74989
G1 X89.316 Y48.866 E1.77213
G1 X89.587 Y48.185 E1.82202
G1 X89.732 Y47.892 E1.84426
G1 X90.110 Y47.264 E1.89414
G1 X90.301 Y46.998 E1.91638
G1 X90.833 Y46.382 E1.97182
G1 X100.787 Y36.438 E2.92918
G1 X101.283 Y36.016 E2.97351
G1 X101.549 Y35.825 E2.99575
G1 X102.177 Y35.447 E3.04563
G1 X102.470 Y35.302 E3.06787
G1 X103.151 Y35.031 E3.11776
G1 X103.463 Y34.935 E3.14000
G1 X104.180 Y34.778 E3.18989
G1 X104.503 Y34.734 E3.21214
G1 X105.236 Y34.695 E3.26202
G1 X105.562 Y34.704 E3.28426
G1 X106.223 Y34.777 E3.32946
G1 X106.508 Y34.829 E3.34923
G1 X107.267 Y35.026 E3.40253
G1 X107.608 Y35.149 E3.42725
G1 X108.246 Y35.446 E3.47510
G1 X111.952 Y37.343 E3.75842
G1 X115.613 Y38.834 E4.02735
G1 X119.387 Y40.006 E4.29629
G1 X123.249 Y40.849 E4.56522
G1 X127.168 Y41.357 E4.83416
G1 X131.117 Y41.527 E5.10310
G1 X135.066 Y41.357 E5.37203
G1 X138.624 Y40.896 E5.61617
G1 X138.985 Y40.849 E5.64097
G1 X142.847 Y40.006 E5.90991
G1 X146.622 Y38.834 E6.17884
G1 X150.282 Y37.343 E6.44778
G1 X153.988 Y35.446 E6.73109
G1 X154.609 Y35.156 E6.77772
G1 X154.916 Y35.043 E6.79996
G1 X155.622 Y34.846 E6.84984
G1 X155.943 Y34.784 E6.87209
G1 X156.672 Y34.704 E6.92197
G1 X156.999 Y34.695 E6.94421
G1 X157.731 Y34.734 E6.99410
G1 X158.055 Y34.778 E7.01634
G1 X158.771 Y34.935 E7.06623
G1 X159.083 Y35.031 E7.08847
G1 X159.765 Y35.302 E7.13836
G1 X160.057 Y35.448 E7.16060
G1 X160.686 Y35.825 E7.21049
G1 X160.951 Y36.016 E7.23273
G1 X161.568 Y36.548 E7.28816
G1 X171.512 Y46.502 E8.24553
G1 X171.934 Y46.998 E8.28985
G1 X172.124 Y47.264 E8.31208
G1 X172.502 Y47.892 E8.36197
G1 X172.647 Y48.185 E8.38422
G1 X172.918 Y48.866 E8.43411
G1 X173.014 Y49.179 E8.45635
G1 X173.171 Y49.895 E8.50623
G1 X173.215 Y50.219 E8.52848
G1 X173.254 Y50.951 E8.57836
G1 X173.245 Y51.278 E8.60060
G1 X173.165 Y52.006 E8.65048
G1 X173.103 Y52.327 E8.67273
G1 X172.906 Y53.034 E8.72262
G1 X172.793 Y53.340 E8.74486
G1 X172.504 Y53.961 E8.79148
G1 X170.607 Y57.668 E9.07480
G1 X169.116 Y61.328 E9.34373
G1 X167.944 Y65.103 E9.61267
G1 X167.101 Y68.964 E9.88161
G1 X166.592 Y72.884 E10.15054
G1 X166.423 Y76.833 E10.41948
G1 X166.592 Y80.781 E10.68841
G1 X167.054 Y84.339 E10.93255
G1 X167.101 Y84.701 E10.95735
G1 X167.944 Y88.562 E11.22629
G1 X169.116 Y92.337 E11.49522
G1 X170.607 Y95.997 E11.76416
G1 X172.504 Y99.704 E12.04747
G1 X172.793 Y100.325 E12.09409
G1 X172.906 Y100.631 E12.11634
G1 X173.103 Y101.338 E12.16623
G1 X173.165 Y101.659 E12.18848
G1 X173.245 Y102.387 E12.23836
G1 X173.254 Y102.714 E12.26060
G1 X173.215 Y103.446 E12.31048
G1 X173.171 Y103.770 E12.33273
G1 X173.014 Y104.486 E12.38261
G1 X172.918 Y104.799 E12.40485
G1 X172.647 Y105.480 E12.45473
G1 X172.502 Y105.773 E12.47699
G1 X172.124 Y106.401 E12.52687
G1 X171.934 Y106.667 E12.54911
G1 X171.401 Y107.283 E12.60454
G1 X161.448 Y117.227 E13.56191
G1 X160.951 Y117.649 E13.60623
G1 X160.686 Y117.840 E13.62846
G1 X160.058 Y118.217 E13.67835
G1 X159.764 Y118.363 E13.70060
G1 X159.083 Y118.634 E13.75049
G1 X158.771 Y118.730 E13.77273
G1 X158.055 Y118.887 E13.82261
G1 X157.731 Y118.931 E13.84486
G1 X156.999 Y118.970 E13.89474
G1 X156.672 Y118.961 E13.91698
G1 X155.943 Y118.881 E13.96686
G1 X155.622 Y118.819 E13.98911
G1 X154.916 Y118.622 E14.03900
G1 X154.609 Y118.509 E14.06124
G1 X153.988 Y118.219 E14.10786
G1 X150.282 Y116.322 E14.39118
G1 X146.622 Y114.831 E14.66011
G1 X142.847 Y113.659 E14.92905
G1 X138.985 Y112.816 E15.19799
G1 X135.066 Y112.308 E15.46692
G1 X131.117 Y112.138 E15.73586
G1 X127.168 Y112.308 E16.00480
G1 X123.610 Y112.769 E16.24893
G1 X123.249 Y112.816 E16.27373
G1 X119.387 Y113.659 E16.54267
G1 X115.613 Y114.831 E16.81160
G1 X111.952 Y116.322 E17.08054
G1 X108.246 Y118.219 E17.36385
G1 X107.625 Y118.509 E17.41047
G1 X107.318 Y118.622 E17.43272
G1 X106.612 Y118.819 E17.48261
G1 X106.291 Y118.881 E17.50486
G1 X105.546 Y118.962 E17.55583
G1 X105.187 Y118.970 E17.58027
G1 X104.412 Y118.916 E17.63316
G1 X104.120 Y118.874 E17.65321
G1 X103.463 Y118.730 E17.69896
G1 X103.151 Y118.634 E17.72120
G1 X102.470 Y118.363 E17.77108
G1 X102.177 Y118.218 E17.79333
G1 X101.548 Y117.840 E17.84322
G1 X101.283 Y117.649 E17.86546
G1 X100.666 Y117.117 E17.92089
G1 X90.722 Y107.163 E18.87825
G1 X90.301 Y106.667 E18.92257
G1 X90.110 Y106.401 E18.94482
G1 X89.732 Y105.773 E18.99470
G1 X89.587 Y105.480 E19.01694
G1 X89.316 Y104.799 E19.06683
G1 X89.220 Y104.486 E19.08907
G1 X89.063 Y103.770 E19.13896
G1 X89.019 Y103.446 E19.16121
G1 X88.980 Y102.714 E19.21109
G1 X88.989 Y102.387 E19.23333
G1 X89.069 Y101.659 E19.28321
G1 X89.131 Y101.338 E19.30546
G1 X89.328 Y100.631 E19.35534
G1 X89.441 Y100.325 E19.37759
G1 X89.731 Y99.704 E19.42421
G1 X91.627 Y95.997 E19.70752
G1 X93.119 Y92.337 E19.97646
G1 X94.290 Y88.562 E20.24540
G1 X95.133 Y84.701 E20.51433
G1 X95.642 Y80.781 E20.78327
G1 X95.812 Y76.833 E21.05221
G1 X95.642 Y72.884 E21.32114
G1 X95.180 Y69.326 E21.56528
G1 X95.133 Y68.964 E21.59008
G1 X94.290 Y65.103 E21.85901
G1 X93.119 Y61.328 E22.12795
G1 X91.627 Y57.668 E22.39689
G1 X89.731 Y53.961 E22.68020
G1 X89.441 Y53.340 E22.72682
G1 X89.328 Y53.034 E22.74907
G1 X89.131 Y52.327 E22.79895
G1 X89.069 Y52.006 E22.82120
G1 X88.989 Y51.278 E22.87108
G1 X88.980 Y50.951 E22.89332
G1 X89.045 Y50.028 E22.95631
G1 F1800.000 E21.25631
G92 E0
G1 X86.399 Y50.711 F9000.000
G1 X81.334 Y63.954
G1 X78.345 Y64.317
G1 F1800.000 E1.70000
G1 X79.136 Y64.926 F1800.000 E1.76792
G1 X79.331 Y65.105 E1.78592
G1 X80.083 Y65.921 E1.86146
G1 X80.246 Y66.130 E1.87947
G1 X80.850 Y67.061 E1.95501
G1 X80.975 Y67.295 E1.97301
G1 X81.414 Y68.314 E2.04855
G1 X81.497 Y68.565 E2.06656
G1 X81.758 Y69.644 E2.14209
G1 X81.798 Y69.906 E2.16010
G1 X81.873 Y71.014 E2.23563
G1 X81.869 Y71.278 E2.25364
G1 X81.753 Y72.386 E2.32943
G1 X80.478 Y80.311 E2.87559
G1 X79.639 Y88.164 E3.41301
G1 X79.219 Y96.051 E3.95043
G1 X79.219 Y103.949 E4.48785
G1 X79.639 Y111.836 E5.02527
G1 X80.478 Y119.689 E5.56269
G1 X81.753 Y127.614 E6.10885
G1 X81.869 Y128.722 E6.18463
G1 X81.873 Y128.986 E6.20264
G1 X81.798 Y130.094 E6.27818
G1 X81.758 Y130.356 E6.29618
G1 X81.497 Y131.435 E6.37172
G1 X81.414 Y131.686 E6.38973
G1 X80.975 Y132.705 E6.46526
G1 X80.850 Y132.939 E6.48327
G1 X80.246 Y133.870 E6.55880
G1 X80.083 Y134.079 E6.57681
G1 X79.331 Y134.895 E6.65235
G1 X79.136 Y135.074 E6.67036
G1 X78.312 Y135.707 E6.74104
G1 X75.605 Y137.683 E6.96910
G1 X73.297 Y139.824 E7.18331
G1 X71.255 Y142.220 E7.39751
G1 X69.507 Y144.838 E7.61171
G1 X68.078 Y147.643 E7.82592
G1 X66.986 Y150.595 E8.04012
G1 X66.247 Y153.656 E8.25432
G1 X65.847 Y156.983 E8.48234
G1 X65.699 Y158.000 E8.55230
G1 X65.639 Y158.255 E8.57013
G1 X65.301 Y159.302 E8.64498
G1 X65.200 Y159.544 E8.66282
G1 X64.691 Y160.519 E8.73766
G1 X64.551 Y160.741 E8.75551
G1 X63.887 Y161.618 E8.83035
G1 X63.712 Y161.813 E8.84819
G1 X62.911 Y162.566 E8.92303
G1 X62.705 Y162.729 E8.94088
G1 X61.789 Y163.339 E9.01572
G1 X61.560 Y163.465 E9.03357
G1 X60.555 Y163.913 E9.10841
G1 X60.307 Y163.999 E9.12625
G1 X59.242 Y164.273 E9.20110
G1 X58.984 Y164.317 E9.21894
G1 X57.822 Y164.409 E9.29823
G1 X31.691 Y164.409 E11.07629
G1 X30.529 Y164.317 E11.15558
G1 X30.271 Y164.273 E11.17342
G1 X29.205 Y163.999 E11.24827
G1 X28.958 Y163.913 E11.26611
G1 X27.953 Y163.465 E11.34095
G1 X27.723 Y163.339 E11.35879
G1 X26.808 Y162.729 E11.43364
G1 X26.602 Y162.566 E11.45148
G1 X25.801 Y161.813 E11.52633
G1 X25.626 Y161.618 E11.54417
G1 X24.962 Y160.741 E11.61901
G1 X24.822 Y160.519 E11.63685
G1 X24.313 Y159.544 E11.71170
