; generated by Slic3r 0.9.9 on 2013-06-08 at 17:40:39

; layer_height = 0.3
; perimeters = 2
; top_solid_layers = 4
; bottom_solid_layers = 3
; fill_density = 0.6
; perimeter_speed = 100
; infill_speed = 150
; travel_speed = 150
; nozzle_diameter = 0.5
; filament_diameter = 2.89
; extrusion_multiplier = 1
; perimeters extrusion width = 0.70mm
; infill extrusion width = 0.70mm
; solid infill extrusion width = 0.70mm
; top infill extrusion width = 0.70mm
; first layer extrusion width = 1.00mm

G21 ; set units to millimeters
M107
M190 S110 ; wait for bed temperature to be reached
M104 S230 ; set temperature
G28 ; home all axes
M109 S230 ; wait for temperature to be reached
G90 ; use absolute coordinates
G92 E0
M82 ; use absolute distances for extrusion
G1 F1800.000 E-1.70000
G92 E0
G1 Z0.500 F9000.000
G1 X73.450 Y41.172
G1 F1800.000 E1.70000
G1 X74.080 Y40.242 F1800.000 E1.77643
G1 X74.400 Y39.852 E1.81076
G1 X74.980 Y39.232 E1.86853
G1 X75.720 Y38.572 E1.93600
G1 X76.630 Y37.872 E2.01412
G1 X77.050 Y37.612 E2.04773
G1 X77.820 Y37.202 E2.10709
G1 X78.490 Y36.892 E2.15732
G1 X79.550 Y36.542 E2.23328
G1 X80.620 Y36.292 E2.30805
G1 X81.230 Y36.202 E2.35000
G1 X82.310 Y36.132 E2.42364
G1 X97.690 Y36.282 E3.47021
G1 X98.810 Y36.352 E3.54657
G1 X99.290 Y36.432 E3.57968
G1 X100.380 Y36.672 E3.65562
G1 X100.850 Y36.812 E3.68899
G1 X101.870 Y37.232 E3.76405
G1 X102.810 Y37.712 E3.83587
G1 X103.600 Y38.202 E3.89913
G1 X104.230 Y38.672 E3.95261
G1 X104.890 Y39.272 E4.01330
G1 X105.670 Y40.122 E4.09180
G1 X106.060 Y40.622 E4.13495
G1 X106.690 Y41.572 E4.21251
G1 X107.000 Y42.142 E4.25666
G1 X107.320 Y42.812 E4.30718
G1 X107.680 Y43.862 E4.38271
G1 X107.930 Y44.882 E4.45417
G1 X108.040 Y45.542 E4.49970
G1 X108.130 Y46.642 E4.57480
G1 X108.630 Y145.282 E11.28674
G1 X108.600 Y145.952 E11.33237
G1 X108.390 Y148.222 E11.48749
G1 X108.260 Y148.932 E11.53661
G1 X107.590 Y151.362 E11.70813
G1 X107.340 Y152.042 E11.75742
G1 X106.370 Y154.102 E11.91236
G1 X106.030 Y154.742 E11.96167
G1 X105.760 Y155.142 E11.99451
G1 X104.580 Y156.802 E12.13309
G1 X103.830 Y157.682 E12.21176
G1 X102.210 Y159.302 E12.36765
G1 X101.640 Y159.782 E12.41836
G1 X99.760 Y161.082 E12.57389
G1 X98.750 Y161.662 E12.65314
G1 X96.900 Y162.522 E12.79195
G1 X95.790 Y162.922 E12.87224
G1 X93.830 Y163.452 E13.01039
G1 X93.100 Y163.612 E13.06125
G1 X92.610 Y163.672 E13.09484
G1 X90.700 Y163.832 E13.22526
G1 X89.410 Y163.842 E13.31303
G1 X87.380 Y163.672 E13.45165
G1 X86.650 Y163.572 E13.50178
G1 X86.170 Y163.462 E13.53529
G1 X84.200 Y162.932 E13.67410
G1 X83.740 Y162.792 E13.70682
G1 X83.290 Y162.612 E13.73980
G1 X81.230 Y161.652 E13.89444
G1 X80.230 Y161.082 E13.97277
G1 X78.350 Y159.782 E14.12829
G1 X77.780 Y159.302 E14.17900
G1 X76.160 Y157.682 E14.33489
G1 X75.410 Y156.802 E14.41356
G1 X73.960 Y154.742 E14.58498
G1 X73.620 Y154.102 E14.63429
G1 X72.750 Y152.262 E14.77278
G1 X72.560 Y151.822 E14.80539
G1 X72.330 Y151.132 E14.85488
G1 X71.790 Y149.162 E14.99387
G1 X71.680 Y148.692 E15.02672
G1 X71.600 Y148.222 E15.05916
G1 X71.390 Y145.952 E15.21428
G1 X71.360 Y145.282 E15.25991
G1 X71.860 Y46.702 E21.96777
G1 X71.880 Y46.182 E22.00318
G1 X71.950 Y45.312 E22.06257
G1 X72.080 Y44.582 E22.11302
G1 X72.300 Y43.732 E22.17277
G1 X72.690 Y42.652 E22.25090
G1 X72.950 Y42.082 E22.29353
G1 X73.386 Y41.289 E22.35507
G1 F1800.000 E20.65507
G92 E0
G1 X75.790 Y42.851 F9000.000
G1 F1800.000 E1.70000
G1 X76.321 Y42.056 F1800.000 E1.76502
G1 X76.528 Y41.795 E1.78773
G1 X77.161 Y41.123 E1.85053
G1 X77.399 Y40.908 E1.87233
G1 X78.176 Y40.310 E1.93910
G1 X78.468 Y40.122 E1.96271
G1 X79.320 Y39.675 E2.02818
G1 X79.628 Y39.545 E2.05089
G1 X80.535 Y39.247 E2.11591
G1 X80.860 Y39.169 E2.13862
G1 X81.805 Y39.025 E2.20364
G1 X82.138 Y39.002 E2.22635
G1 X83.093 Y39.016 E2.29137
G1 X83.425 Y39.049 E2.31407
G1 X84.365 Y39.221 E2.37910
G1 X84.687 Y39.308 E2.40180
G1 X85.586 Y39.632 E2.46682
G1 X85.889 Y39.771 E2.48953
G1 X86.722 Y40.240 E2.55455
G1 X86.998 Y40.427 E2.57726
G1 X87.742 Y41.027 E2.64228
G1 X87.984 Y41.258 E2.66498
G1 X88.618 Y41.972 E2.73001
G1 X88.818 Y42.239 E2.75271
G1 X89.326 Y43.049 E2.81774
G1 X89.479 Y43.346 E2.84044
G1 X89.845 Y44.228 E2.90546
G1 X89.948 Y44.546 E2.92817
G1 X90.023 Y44.869 E2.95077
G1 X90.124 Y44.480 E2.97812
G1 X90.240 Y44.157 E3.00149
G1 X90.633 Y43.292 E3.06612
G1 X90.794 Y43.004 E3.08856
G1 X91.357 Y42.166 E3.15726
G1 X91.581 Y41.889 E3.18156
G1 X92.270 Y41.177 E3.24894
G1 X92.529 Y40.951 E3.27231
G1 X93.323 Y40.371 E3.33923
G1 X93.616 Y40.193 E3.36259
G1 X94.498 Y39.756 E3.42951
G1 X94.817 Y39.631 E3.45288
G1 X95.760 Y39.350 E3.51979
G1 X96.096 Y39.281 E3.54316
G1 X97.073 Y39.164 E3.61007
G1 X97.416 Y39.153 E3.63344
G1 X98.398 Y39.205 E3.70036
G1 X98.738 Y39.252 E3.72373
G1 X99.697 Y39.470 E3.79064
G1 X100.024 Y39.574 E3.81401
G1 X100.901 Y39.939 E3.87864
G1 X101.194 Y40.090 E3.90108
G1 X102.051 Y40.625 E3.96978
G1 X102.335 Y40.840 E3.99408
G1 X103.069 Y41.505 E4.06146
G1 X103.303 Y41.757 E4.08483
G1 X103.909 Y42.531 E4.15175
G1 X104.097 Y42.819 E4.17511
G1 X104.563 Y43.685 E4.24203
G1 X104.699 Y44.000 E4.26539
G1 X105.000 Y44.901 E4.33003
G1 X105.078 Y45.221 E4.35247
G1 X105.237 Y46.219 E4.42117
G1 X105.262 Y46.575 E4.44547
G1 X105.242 Y47.565 E4.51285
G1 X105.206 Y47.906 E4.53622
G1 X105.073 Y48.600 E4.58429
G1 X103.633 Y58.963 E5.29617
G1 X102.562 Y69.403 E6.01033
G1 X101.864 Y79.876 E6.72449
G1 X101.542 Y90.366 E7.43864
G1 X101.595 Y100.862 E8.15280
G1 X102.023 Y111.348 E8.86696
G1 X102.826 Y121.813 E9.58111
G1 X104.002 Y132.243 E10.29527
G1 X105.588 Y142.900 E11.02845
G1 X105.768 Y145.175 E11.18372
G1 X105.765 Y145.524 E11.20747
G1 X105.540 Y147.901 E11.36991
G1 X105.477 Y148.244 E11.39366
G1 X104.844 Y150.546 E11.55610
G1 X104.723 Y150.873 E11.57985
G1 X103.702 Y153.031 E11.74228
G1 X103.526 Y153.333 E11.76604
G1 X102.148 Y155.282 E11.92847
G1 X101.922 Y155.548 E11.95222
G1 X100.228 Y157.230 E12.11466
G1 X99.959 Y157.453 E12.13841
G1 X98.000 Y158.816 E12.30084
G1 X97.697 Y158.990 E12.32460
G1 X95.531 Y159.994 E12.48703
G1 X95.203 Y160.113 E12.51079
G1 X92.897 Y160.728 E12.67322
G1 X92.553 Y160.789 E12.69697
G1 X90.175 Y160.996 E12.85941
G1 X89.825 Y160.996 E12.88316
G1 X87.447 Y160.789 E13.04560
G1 X87.103 Y160.728 E13.06935
G1 X84.797 Y160.113 E13.23178
G1 X84.469 Y159.994 E13.25554
G1 X82.303 Y158.990 E13.41797
G1 X82.000 Y158.816 E13.44172
G1 X80.041 Y157.453 E13.60416
G1 X79.772 Y157.230 E13.62790
G1 X78.078 Y155.548 E13.79035
G1 X77.852 Y155.282 E13.81410
G1 X76.474 Y153.333 E13.97653
G1 X76.298 Y153.031 E14.00028
G1 X75.277 Y150.873 E14.16272
G1 X75.156 Y150.546 E14.18647
G1 X74.523 Y148.244 E14.34891
G1 X74.460 Y147.901 E14.37266
G1 X74.235 Y145.524 E14.53509
G1 X74.232 Y145.175 E14.55885
G1 X74.412 Y142.901 E14.71411
G1 X76.006 Y132.178 E15.45175
G1 X77.186 Y121.683 E16.17037
G1 X77.988 Y111.152 E16.88898
G1 X78.411 Y100.600 E17.60760
G1 X78.454 Y90.039 E18.32622
G1 X78.116 Y79.483 E19.04483
G1 X77.399 Y68.946 E19.76345
G1 X76.303 Y58.442 E20.48206
G1 X74.811 Y47.848 E21.21004
G1 X74.733 Y46.867 E21.27704
G1 X74.736 Y46.533 E21.29974
G1 X74.823 Y45.581 E21.36477
G1 X74.881 Y45.253 E21.38747
G1 X75.124 Y44.328 E21.45249
G1 X75.235 Y44.014 E21.47520
G1 X75.628 Y43.143 E21.54022
G1 X75.725 Y42.968 E21.55382
G1 F1800.000 E19.85382
G92 E0
G1 X78.470 Y42.463 F9000.000
G1 X82.096 Y40.910
G1 X85.793 Y41.908
G1 X88.043 Y44.910
G1 X88.193 Y48.297
G1 X90.000 Y49.318
G1 F1800.000 E1.70000
G1 X90.184 Y50.030 F1800.000 E1.75002
G1 X90.297 Y50.353 E1.77333
G1 X90.912 Y51.716 E1.87509
G1 X90.953 Y51.870 E1.88595
G1 X90.970 Y52.025 E1.89653
G1 X90.952 Y52.342 E1.91812
G1 X90.792 Y53.501 E1.99774
G1 X90.502 Y53.476 E2.01756
G1 X89.498 Y53.476 E2.08590
G1 X89.208 Y53.501 E2.10573
G1 X89.048 Y52.342 E2.18534
G1 X89.030 Y52.025 E2.20693
G1 X89.047 Y51.870 E2.21751
G1 X89.088 Y51.716 E2.22838
G1 X89.703 Y50.353 E2.33014
G1 X89.816 Y50.030 E2.35344
G1 X89.967 Y49.447 E2.39435
G1 X89.238 Y48.698 F9000.000
G1 X88.961 Y49.769 F1800.000 E2.46963
G1 X88.873 Y50.021 E2.48776
G1 X88.245 Y51.414 E2.59175
G1 X88.166 Y51.706 E2.61232
G1 X88.135 Y52.004 E2.63268
G1 X88.159 Y52.428 E2.66160
G1 X88.449 Y54.536 E2.80639
G1 X89.265 Y54.392 E2.86278
G1 X89.537 Y54.368 E2.88135
G1 X90.463 Y54.368 E2.94439
G1 X90.735 Y54.392 E2.96295
G1 X91.551 Y54.536 E3.01935
G1 X91.841 Y52.428 E3.16414
G1 X91.865 Y52.004 E3.19306
G1 X91.834 Y51.706 E3.21341
G1 X91.755 Y51.414 E3.23398
G1 X91.127 Y50.021 E3.33798
G1 X91.039 Y49.769 E3.35611
G1 X90.762 Y48.698 E3.43139
G1 X90.718 Y48.439 E3.44931
G1 X90.630 Y47.401 E3.52016
G1 X90.631 Y46.719 E3.56654
G1 X90.703 Y45.884 E3.62357
G1 X90.748 Y45.621 E3.64174
G1 X90.978 Y44.744 E3.70346
G1 X91.068 Y44.492 E3.72164
G1 X91.430 Y43.696 E3.78118
G1 X91.555 Y43.472 E3.79863
G1 X92.076 Y42.697 E3.86215
G1 X92.250 Y42.481 E3.88104
G1 X92.885 Y41.825 E3.94313
G1 X93.086 Y41.650 E3.96130
G1 X93.819 Y41.114 E4.02303
G1 X94.047 Y40.976 E4.04120
G1 X94.860 Y40.573 E4.10292
G1 X95.108 Y40.475 E4.12110
G1 X95.978 Y40.217 E4.18282
G1 X96.239 Y40.163 E4.20100
G1 X97.140 Y40.055 E4.26272
G1 X97.407 Y40.047 E4.28089
G1 X98.313 Y40.094 E4.34262
G1 X98.577 Y40.131 E4.36079
G1 X99.462 Y40.332 E4.42251
G1 X99.716 Y40.413 E4.44069
G1 X100.524 Y40.749 E4.50023
G1 X100.752 Y40.867 E4.51768
G1 X101.544 Y41.361 E4.58119
G1 X101.766 Y41.529 E4.60009
G1 X102.442 Y42.141 E4.66218
G1 X102.624 Y42.337 E4.68035
G1 X103.183 Y43.051 E4.74208
G1 X103.329 Y43.275 E4.76025
G1 X103.758 Y44.074 E4.82197
G1 X103.864 Y44.319 E4.84015
G1 X104.141 Y45.149 E4.89969
G1 X104.202 Y45.398 E4.91714
G1 X104.349 Y46.320 E4.98065
G1 X104.368 Y46.597 E4.99955
G1 X104.351 Y47.509 E5.06164
G1 X104.323 Y47.775 E5.07981
G1 X104.192 Y48.454 E5.12688
G1 X102.747 Y58.856 E5.84144
G1 X101.672 Y69.328 E6.55777
G1 X100.973 Y79.832 E7.27410
G1 X100.649 Y90.355 E7.99043
G1 X100.702 Y100.882 E8.70676
G1 X101.132 Y111.401 E9.42309
G1 X101.937 Y121.897 E10.13942
G1 X103.117 Y132.359 E10.85575
G1 X104.699 Y142.986 E11.58687
G1 X104.875 Y145.207 E11.73846
G1 X104.873 Y145.479 E11.75693
G1 X104.655 Y147.778 E11.91409
G1 X104.606 Y148.045 E11.93256
G1 X103.994 Y150.272 E12.08972
G1 X103.900 Y150.527 E12.10819
G1 X102.912 Y152.614 E12.26535
G1 X102.775 Y152.849 E12.28383
G1 X101.441 Y154.735 E12.44098
G1 X101.266 Y154.942 E12.45946
G1 X99.626 Y156.569 E12.61661
G1 X99.418 Y156.742 E12.63509
G1 X97.522 Y158.062 E12.79224
G1 X97.286 Y158.197 E12.81072
G1 X95.191 Y159.168 E12.96788
G1 X94.936 Y159.261 E12.98635
G1 X92.704 Y159.856 E13.14351
G1 X92.437 Y159.903 E13.16198
G1 X90.136 Y160.103 E13.31914
G1 X89.864 Y160.103 E13.33761
G1 X87.563 Y159.903 E13.49477
G1 X87.296 Y159.856 E13.51324
G1 X85.064 Y159.261 E13.67040
G1 X84.809 Y159.168 E13.68887
G1 X82.714 Y158.197 E13.84603
G1 X82.478 Y158.062 E13.86450
G1 X80.582 Y156.742 E14.02166
G1 X80.374 Y156.569 E14.04013
G1 X78.734 Y154.942 E14.19729
G1 X78.559 Y154.735 E14.21577
G1 X77.225 Y152.849 E14.37292
G1 X77.088 Y152.614 E14.39140
G1 X76.100 Y150.527 E14.54855
G1 X76.006 Y150.272 E14.56703
G1 X75.394 Y148.045 E14.72419
G1 X75.345 Y147.778 E14.74266
G1 X75.127 Y145.479 E14.89982
G1 X75.125 Y145.207 E14.91829
G1 X75.313 Y142.880 E15.07718
G1 X76.891 Y132.293 E15.80547
G1 X78.075 Y121.767 E16.52627
G1 X78.880 Y111.204 E17.24708
G1 X79.304 Y100.619 E17.96788
G1 X79.346 Y90.026 E18.68868
G1 X79.008 Y79.438 E19.40948
G1 X78.289 Y68.870 E20.13028
G1 X77.190 Y58.334 E20.85108
G1 X75.686 Y47.637 E21.58608
G1 X75.626 Y46.837 E21.64068
G1 X75.629 Y46.577 E21.65834
G1 X75.709 Y45.699 E21.71832
G1 X75.754 Y45.444 E21.73598
G1 X75.978 Y44.591 E21.79596
G1 X76.064 Y44.347 E21.81362
G1 X76.426 Y43.543 E21.87359
G1 X76.552 Y43.316 E21.89125
G1 X77.042 Y42.583 E21.95123
G1 X77.204 Y42.380 E21.96889
G1 X77.787 Y41.761 E22.02675
G1 X77.971 Y41.594 E22.04371
G1 X78.690 Y41.041 E22.10542
G1 X78.917 Y40.895 E22.12379
G1 X79.702 Y40.483 E22.18412
G1 X79.941 Y40.382 E22.20178
G1 X80.779 Y40.106 E22.26175
G1 X81.031 Y40.046 E22.27941
G1 X81.903 Y39.913 E22.33939
G1 X82.162 Y39.896 E22.35705
G1 X83.043 Y39.908 E22.41703
G1 X83.301 Y39.934 E22.43469
G1 X84.168 Y40.092 E22.49466
G1 X84.419 Y40.160 E22.51232
G1 X85.248 Y40.459 E22.57230
G1 X85.484 Y40.567 E22.58996
G1 X86.252 Y41.000 E22.64994
G1 X86.467 Y41.146 E22.66760
G1 X87.153 Y41.699 E22.72757
G1 X87.341 Y41.878 E22.74523
G1 X87.926 Y42.537 E22.80521
G1 X88.081 Y42.745 E22.82287
G1 X88.549 Y43.492 E22.88285
G1 X88.669 Y43.722 E22.90051
G1 X89.007 Y44.536 E22.96048
G1 X89.086 Y44.783 E22.97814
G1 X89.285 Y45.642 E23.03812
G1 X89.323 Y45.899 E23.05578
G1 X89.372 Y46.697 E23.11022
G1 X89.375 Y47.272 E23.14930
G1 X89.261 Y48.566 E23.23772
G1 X88.396 Y48.326 F9000.000
G1 X88.364 Y48.511 F1800.000 E23.25052
G1 X88.107 Y49.509 E23.32065
G1 X88.043 Y49.689 E23.33360
G1 X87.402 Y51.112 E23.43983
G1 X87.286 Y51.542 E23.47011
G1 X87.240 Y51.982 E23.50024
G1 X87.270 Y52.514 E23.53648
G1 X87.709 Y55.712 E23.75612
G1 X88.358 Y55.476 E23.80307
G1 X88.546 Y55.425 E23.81633
G1 X89.382 Y55.278 E23.87407
G1 X89.576 Y55.261 E23.88733
G1 X90.424 Y55.261 E23.94507
G1 X90.618 Y55.278 E23.95833
G1 X91.454 Y55.425 E24.01607
G1 X91.642 Y55.476 E24.02933
G1 X92.291 Y55.712 E24.07629
G1 X92.730 Y52.514 E24.29592
G1 X92.760 Y51.982 E24.33217
G1 X92.714 Y51.542 E24.36229
G1 X92.598 Y51.112 E24.39257
G1 X91.957 Y49.689 E24.49880
G1 X91.893 Y49.509 E24.51175
G1 X91.636 Y48.511 E24.58188
G1 X91.604 Y48.326 E24.59468
G1 X91.517 Y47.248 E24.66826
G1 X91.522 Y46.777 E24.70031
G1 X91.589 Y45.999 E24.75348
G1 X91.622 Y45.811 E24.76646
G1 X91.832 Y45.007 E24.82299
G1 X91.896 Y44.827 E24.83597
G1 X92.317 Y43.939 E24.90286
G1 X92.795 Y43.227 E24.96118
G1 X92.920 Y43.073 E24.97468
G1 X93.500 Y42.473 E25.03147
G1 X93.644 Y42.348 E25.04445
G1 X94.315 Y41.858 E25.10098
G1 X94.478 Y41.759 E25.11396
G1 X95.222 Y41.390 E25.17049
G1 X95.400 Y41.320 E25.18347
G1 X96.196 Y41.083 E25.24000
G1 X96.383 Y41.044 E25.25298
G1 X97.208 Y40.946 E25.30951
G1 X97.398 Y40.940 E25.32249
G1 X98.228 Y40.984 E25.37902
G1 X98.417 Y41.010 E25.39201
G1 X99.227 Y41.194 E25.44853
G1 X99.409 Y41.252 E25.46152
G1 X100.311 Y41.643 E25.52840
G1 X101.037 Y42.097 E25.58672
G1 X101.196 Y42.217 E25.60022
G1 X101.814 Y42.777 E25.65701
G1 X101.944 Y42.917 E25.66999
G1 X102.456 Y43.571 E25.72652
G1 X102.561 Y43.731 E25.73950
G1 X102.954 Y44.463 E25.79603
G1 X103.029 Y44.638 E25.80901
G1 X103.283 Y45.397 E25.86347
G1 X103.461 Y46.421 E25.93422
G1 X103.475 Y46.619 E25.94772
G1 X103.459 Y47.454 E26.00451
G1 X103.439 Y47.643 E26.01749
G1 X103.311 Y48.308 E26.06355
G1 X101.860 Y58.749 E26.78079
G1 X100.783 Y69.253 E27.49929
G1 X100.081 Y79.789 E28.21779
G1 X99.756 Y90.343 E28.93630
G1 X99.810 Y100.903 E29.65480
G1 X100.240 Y111.453 E30.37330
G1 X101.048 Y121.982 E31.09180
G1 X102.232 Y132.474 E31.81031
G1 X103.810 Y143.072 E32.53938
G1 X103.982 Y145.239 E32.68728
G1 X103.981 Y145.433 E32.70047
G1 X103.770 Y147.655 E32.85235
G1 X103.735 Y147.846 E32.86555
G1 X103.143 Y149.998 E33.01743
G1 X103.076 Y150.180 E33.03062
G1 X102.121 Y152.198 E33.18250
G1 X102.024 Y152.365 E33.19570
G1 X100.735 Y154.187 E33.34757
G1 X100.609 Y154.335 E33.36077
G1 X99.025 Y155.908 E33.51265
G1 X98.876 Y156.032 E33.52584
G1 X97.044 Y157.307 E33.67772
G1 X96.876 Y157.403 E33.69092
G1 X94.851 Y158.342 E33.84280
G1 X94.668 Y158.408 E33.85600
G1 X92.512 Y158.983 E34.00787
G1 X92.321 Y159.017 E34.02107
G1 X90.097 Y159.210 E34.17295
G1 X89.903 Y159.210 E34.18614
G1 X87.679 Y159.017 E34.33802
G1 X87.488 Y158.983 E34.35122
G1 X85.332 Y158.408 E34.50310
G1 X85.149 Y158.342 E34.51629
G1 X83.124 Y157.403 E34.66817
G1 X82.956 Y157.307 E34.68137
G1 X81.124 Y156.032 E34.83325
G1 X80.975 Y155.908 E34.84644
G1 X79.391 Y154.335 E34.99832
G1 X79.265 Y154.187 E35.01152
G1 X77.976 Y152.365 E35.16340
G1 X77.879 Y152.198 E35.17659
G1 X76.924 Y150.180 E35.32847
G1 X76.857 Y149.998 E35.34167
G1 X76.265 Y147.846 E35.49355
G1 X76.230 Y147.655 E35.50674
G1 X76.019 Y145.433 E35.65862
G1 X76.018 Y145.239 E35.67182
G1 X76.198 Y142.996 E35.82494
G1 X77.777 Y132.409 E36.55327
G1 X78.964 Y121.850 E37.27626
G1 X79.771 Y111.256 E37.99925
G1 X80.196 Y100.639 E38.72224
